src/icons/learning-paths.svg

<svg xmlns="http://www.w3.org/2000/svg" viewBox="0 0 18 18" fill="none"><path d="M1.00002 9.49999L0.500023 9.99999V12.75L1.00002 13.25H3.75002L4.25002 12.75V9.99999L3.75002 9.49999H1.00002ZM3.25002 12.25H1.50002V10.5H3.25002V12.25Z" fill="black"/><path d="M6.92799 0.498184L4.67763 2.74855L6.92799 4.99892L9.17836 2.74855L6.92799 0.498184Z" fill="black"/><path d="M2.76002 8.05749H11.095V9.19749H12.0775V7.07249H7.42752V5.47249H6.42752V7.07249H1.77502V9.19749H2.76002V8.05749Z" fill="black"/><path d="M11.5 9.49999C11.1045 9.49999 10.7178 9.61729 10.3889 9.83705C10.06 10.0568 9.80364 10.3692 9.65226 10.7346C9.50089 11.1001 9.46128 11.5022 9.53845 11.8902C9.61562 12.2781 9.8061 12.6345 10.0858 12.9142C10.3655 13.1939 10.7219 13.3844 11.1098 13.4616C11.4978 13.5387 11.8999 13.4991 12.2654 13.3477C12.6308 13.1964 12.9432 12.94 13.163 12.6111C13.3827 12.2822 13.5 11.8956 13.5 11.5C13.5 10.9696 13.2893 10.4608 12.9142 10.0858C12.5392 9.7107 12.0305 9.49999 11.5 9.49999ZM11.5 12.5C11.3022 12.5 11.1089 12.4413 10.9445 12.3315C10.78 12.2216 10.6518 12.0654 10.5761 11.8827C10.5005 11.6999 10.4807 11.4989 10.5192 11.3049C10.5578 11.1109 10.6531 10.9327 10.7929 10.7929C10.9328 10.653 11.111 10.5578 11.3049 10.5192C11.4989 10.4806 11.7 10.5004 11.8827 10.5761C12.0654 10.6518 12.2216 10.78 12.3315 10.9444C12.4414 11.1089 12.5 11.3022 12.5 11.5C12.5 11.7652 12.3947 12.0196 12.2071 12.2071C12.0196 12.3946 11.7652 12.5 11.5 12.5Z" fill="black"/></svg>

<svg xmlns="http://www.w3.org/2000/svg" fill="none" viewBox="0 0 18 18"><path fill="#000" d="m1 9.5-.5.5v2.75l.5.5h2.75l.5-.5V10l-.5-.5zm2.25 2.75H1.5V10.5h1.75zM6.928.498l-2.25 2.25 2.25 2.25 2.25-2.25zM2.76 8.057h8.335v1.14h.982V7.072h-4.65v-1.6h-1v1.6H1.776v2.125h.985zM11.5 9.5a2 2 0 1 0 0 4 2 2 0 0 0 0-4m0 3a1 1 0 1 1 0-2 1 1 0 0 1 0 2"/></svg>
